X:243
T:MacArthur Road
R:reel
M:4/4
L:1/8
K:Emaj
B2Bc Bcef | g2ga gfec | f2fg fece | aAgA feec |
B2Bc Bcef | g2ga gfec | f2fg feec |1 Bcef e3c :|2 Bcef e3g |:
beee bec'e | beee fece | f2fg fece | aAgA feeg
|1 beee bec'e | beee fece | f2 fg feec | Bcef e2-e g
:|2 B2Bc Bcef | g2ga gfec | f2fg feec | Bcef e2-e2 |]
